Newaita-dark/actions/16/edit-image-face-show.svg

<?xml version="1.0" encoding="UTF-8"?>
<svg xmlns="http://www.w3.org/2000/svg" xmlns:xlink="http://www.w3.org/1999/xlink" width="16pt" height="16pt" viewBox="0 0 16 16" version="1.1">
<g id="surface1">
<path style=" stroke:none;fill-rule:nonzero;fill:rgb(74.117649%,74.117649%,74.117649%);fill-opacity:1;" d="M 1.652344 0.785156 C 1.105469 0.785156 0.660156 1.230469 0.660156 1.777344 L 0.660156 14.347656 C 0.660156 14.898438 1.105469 15.339844 1.652344 15.339844 L 14.222656 15.339844 C 14.773438 15.339844 15.214844 14.898438 15.214844 14.347656 L 15.214844 1.777344 C 15.214844 1.230469 14.773438 0.785156 14.222656 0.785156 Z M 2.316406 1.777344 L 13.5625 1.777344 C 13.925781 1.777344 14.222656 2.074219 14.222656 2.441406 L 14.222656 13.6875 C 14.222656 14.050781 13.925781 14.347656 13.5625 14.347656 L 2.316406 14.347656 C 1.949219 14.347656 1.652344 14.050781 1.652344 13.6875 L 1.652344 2.441406 C 1.652344 2.074219 1.949219 1.777344 2.316406 1.777344 Z M 2.316406 1.777344 "/>
<path style=" stroke:none;fill-rule:nonzero;fill:rgb(47.058824%,56.470591%,61.176473%);fill-opacity:1;" d="M 3.96875 3.433594 C 3.601562 3.433594 3.308594 3.726562 3.308594 4.09375 L 3.308594 6.738281 L 4.300781 6.738281 L 4.300781 4.753906 C 4.300781 4.574219 4.449219 4.425781 4.628906 4.425781 L 6.613281 4.425781 L 6.613281 3.433594 Z M 9.261719 3.433594 L 9.261719 4.425781 L 11.246094 4.425781 C 11.429688 4.425781 11.578125 4.574219 11.578125 4.753906 L 11.578125 6.738281 L 12.570312 6.738281 L 12.570312 4.09375 C 12.570312 3.726562 12.273438 3.433594 11.90625 3.433594 Z M 3.308594 8.394531 L 3.308594 10.710938 C 3.308594 11.074219 3.601562 11.378906 3.96875 11.371094 L 6.613281 11.371094 L 6.613281 10.378906 L 4.628906 10.378906 C 4.449219 10.378906 4.300781 10.230469 4.300781 10.046875 L 4.300781 8.394531 Z M 11.578125 8.394531 L 11.578125 10.046875 C 11.578125 10.230469 11.429688 10.378906 11.246094 10.378906 L 9.261719 10.378906 L 9.261719 11.371094 L 11.90625 11.371094 C 12.273438 11.371094 12.570312 11.074219 12.570312 10.710938 L 12.570312 8.394531 Z M 11.578125 8.394531 "/>
<path style=" stroke:none;fill-rule:nonzero;fill:rgb(100%,43.921569%,26.274511%);fill-opacity:0.996078;" d="M 7.9375 4.753906 C 6.65625 4.753906 5.621094 5.789062 5.621094 7.070312 C 5.621094 8.355469 6.65625 9.386719 7.9375 9.386719 C 9.222656 9.386719 10.253906 8.355469 10.253906 7.070312 C 10.253906 5.789062 9.222656 4.753906 7.9375 4.753906 Z M 7.9375 5.746094 C 8.671875 5.746094 9.261719 6.339844 9.261719 7.070312 C 9.261719 7.804688 8.671875 8.394531 7.9375 8.394531 C 7.207031 8.394531 6.613281 7.804688 6.613281 7.070312 C 6.613281 6.339844 7.207031 5.746094 7.9375 5.746094 Z M 7.9375 5.746094 "/>
<path style=" stroke:none;fill-rule:nonzero;fill:rgb(74.117649%,74.117649%,74.117649%);fill-opacity:1;" d="M 3.984375 11.925781 C 3.972656 11.996094 3.96875 12.066406 3.96875 12.140625 L 3.96875 12.199219 L 3.996094 12.199219 C 3.980469 12.25 3.96875 12.304688 3.96875 12.363281 L 3.96875 13.355469 C 3.96875 13.371094 3.96875 13.386719 3.972656 13.402344 C 3.96875 13.414062 3.96875 13.425781 3.96875 13.4375 C 3.96875 13.667969 4.191406 13.851562 4.464844 13.851562 L 11.410156 13.851562 C 11.6875 13.851562 11.90625 13.667969 11.90625 13.4375 C 11.90625 13.425781 11.90625 13.414062 11.90625 13.402344 C 11.90625 13.386719 11.90625 13.371094 11.90625 13.355469 L 11.90625 12.363281 C 11.90625 12.304688 11.898438 12.25 11.878906 12.199219 L 11.90625 12.199219 L 11.90625 12.140625 C 11.90625 12.101562 11.90625 12.058594 11.902344 12.019531 C 11.796875 12.027344 11.6875 12.03125 11.578125 12.03125 L 10.902344 12.03125 C 10.910156 12.085938 10.914062 12.140625 10.914062 12.199219 L 10.941406 12.199219 C 10.925781 12.25 10.914062 12.304688 10.914062 12.363281 L 10.914062 13.023438 L 4.960938 13.023438 L 4.960938 12.363281 C 4.960938 12.304688 4.953125 12.25 4.933594 12.199219 L 4.960938 12.199219 C 4.960938 12.140625 4.964844 12.085938 4.976562 12.03125 L 4.960938 12.03125 C 4.609375 12.03125 4.28125 11.992188 3.984375 11.925781 Z M 3.984375 11.925781 "/>
</g>
</svg>

<svg xmlns="http://www.w3.org/2000/svg" width="16pt" height="16pt" viewBox="0 0 16 16"><path d="M1.652.785a.994.994 0 0 0-.992.992v12.57c0 .551.445.993.992.993h12.57c.551 0 .993-.442.993-.992V1.778a.991.991 0 0 0-.992-.993zm.664.992h11.246c.364 0 .66.297.66.664v11.246c0 .364-.296.66-.66.66H2.316a.663.663 0 0 1-.664-.66V2.441c0-.367.297-.664.664-.664zm0 0" fill="#bdbdbd"/><path d="M3.969 3.434a.657.657 0 0 0-.66.66v2.644H4.3V4.754a.33.33 0 0 1 .328-.328h1.984v-.992zm5.293 0v.992h1.984a.33.33 0 0 1 .332.328v1.984h.992V4.094a.66.66 0 0 0-.664-.66zm-5.953 4.96v2.317c0 .363.293.668.66.66h2.644v-.992H4.63a.33.33 0 0 1-.328-.332V8.395zm8.27 0v1.653a.332.332 0 0 1-.333.332H9.262v.992h2.644a.663.663 0 0 0 .664-.66V8.395zm0 0" fill="#78909c"/><path d="M7.938 4.754A2.314 2.314 0 0 0 5.62 7.07a2.311 2.311 0 0 0 2.316 2.317 2.309 2.309 0 0 0 2.317-2.317 2.311 2.311 0 0 0-2.316-2.316zm0 .992c.734 0 1.324.594 1.324 1.324a1.32 1.32 0 0 1-1.325 1.325 1.325 1.325 0 0 1 0-2.648zm0 0" fill="#ff7043" fill-opacity=".996"/><path d="M3.984 11.926c-.011.07-.015.14-.015.215v.058h.027a.555.555 0 0 0-.027.164v.992c0 .016 0 .032.004.047-.004.012-.004.024-.004.036 0 .23.222.414.496.414h6.945c.277 0 .496-.184.496-.415v-.035-1.039a.452.452 0 0 0-.027-.164h.027v-.058c0-.04 0-.082-.004-.121a4.415 4.415 0 0 1-.324.011h-.676c.008.055.012.11.012.168h.027a.555.555 0 0 0-.027.164v.66H4.961v-.66a.452.452 0 0 0-.027-.164h.027a.79.79 0 0 1 .016-.168H4.96c-.352 0-.68-.039-.977-.105zm0 0" fill="#bdbdbd"/></svg>
